python/Colour files/MyFile.spi1D
Version 1
From 0.0000000 1.0000000
Length 4096
Components 1
{
 0.0000000
 0.0000003
 0.0000011
 0.0000023
 0.0000038
 0.0000057
 0.0000079
 0.0000105
 0.0000133
 0.0000164
 0.0000199
 0.0000236
 0.0000276
 0.0000318
 0.0000364
 0.0000412
 0.0000463
 0.0000516
 0.0000572
 0.0000631
 0.0000692
 0.0000755
 0.0000821
 0.0000889
 0.0000960
 0.0001033
 0.0001109
 0.0001187
 0.0001267
 0.0001350
 0.0001435
 0.0001522
 0.0001611
 0.0001703
 0.0001797
 0.0001894
 0.0001992
 0.0002093
 0.0002196
 0.0002301
 0.0002408
 0.0002517
 0.0002629
 0.0002743
 0.0002859
 0.0002977
 0.0003097
 0.0003219
 0.0003343
 0.0003470
 0.0003598
 0.0003729
 0.0003861
 0.0003996
 0.0004133
 0.0004272
 0.0004412
 0.0004555
 0.0004700
 0.0004847
 0.0004996
 0.0005147
 0.0005300
 0.0005455
 0.0005611
 0.0005770
 0.0005931
 0.0006094
 0.0006258
 0.0006425
 0.0006594
 0.0006764
 0.0006937
 0.0007111
 0.0007287
 0.0007465
 0.0007646
 0.0007828
 0.0008011
 0.0008197
 0.0008385
 0.0008575
 0.0008766
 0.0008959
 0.0009155
 0.0009352
 0.0009551
 0.0009752
 0.0009954
 0.0010159
 0.0010365
 0.0010573
 0.0010784
 0.0010995
 0.0011209
 0.0011425
 0.0011642
 0.0011861
 0.0012082
 0.0012305
 0.0012530
 0.0012756
 0.0012984
 0.0013214
 0.0013446
 0.0013680
 0.0013915
 0.0014153
 0.0014391
 0.0014632
 0.0014875
 0.0015119
 0.0015365
 0.0015613
 0.0015863
 0.0016114
 0.0016367
 0.0016622
 0.0016878
 0.0017137
 0.0017397
 0.0017659
 0.0017922
 0.0018187
 0.0018454
 0.0018723
 0.0018994
 0.0019266
 0.0019540
 0.0019815
 0.0020093
 0.0020372
 0.0020653
 0.0020935
 0.0021219
 0.0021505
 0.0021793
 0.0022082
 0.0022373
 0.0022666
 0.0022960
 0.0023256
 0.0023554
 0.0023853
 0.0024154
 0.0024457
 0.0024762
 0.0025068
 0.0025375
 0.0025685
 0.0025996
 0.0026309
 0.0026623
 0.0026939
 0.0027257
 0.0027577
 0.0027898
 0.0028220
 0.0028545
 0.0028871
 0.0029198
 0.0029528
 0.0029859
 0.0030191
 0.0030525
 0.0030861
 0.0031199
 0.0031538
 0.0031879
 0.0032221
 0.0032565
 0.0032911
 0.0033258
 0.0033607
 0.0033957
 0.0034309
 0.0034663
 0.0035018
 0.0035375
 0.0035734
 0.0036094
 0.0036456
 0.0036819
 0.0037184
 0.0037550
 0.0037919
 0.0038288
 0.0038660
 0.0039033
 0.0039407
 0.0039783
 0.0040161
 0.0040540
 0.0040921
 0.0041303
 0.0041687
 0.0042073
 0.0042460
 0.0042849
 0.0043239
 0.0043631
 0.0044025
 0.0044420
 0.0044816
 0.0045214
 0.0045614
 0.0046015
 0.0046418
 0.0046823
 0.0047229
 0.0047636
 0.0048045
 0.0048456
 0.0048868
 0.0049282
 0.0049697
 0.0050114
 0.0050532
 0.0050952
 0.0051374
 0.0051797
 0.0052221
 0.0052648
 0.0053075
 0.0053504
 0.0053935
 0.0054367
 0.0054801
 0.0055236
 0.0055673
 0.0056112
 0.0056552
 0.0056993
 0.0057436
 0.0057880
 0.0058326
 0.0058774
 0.0059223
 0.0059673
 0.0060126
 0.0060579
 0.0061034
 0.0061491
 0.0061949
 0.0062409
 0.0062870
 0.0063332
 0.0063797
 0.0064262
 0.0064729
 0.0065198
 0.0065668
 0.0066140
 0.0066613
 0.0067088
 0.0067564
 0.0068042
 0.0068521
 0.0069001
 0.0069484
 0.0069967
 0.0070452
 0.0070939
 0.0071427
 0.0071917
 0.0072408
 0.0072900
 0.0073394
 0.0073890
 0.0074387
 0.0074886
 0.0075385
 0.0075887
 0.0076390
 0.0076894
 0.0077400
 0.0077908
 0.0078416
 0.0078927
 0.0079438
 0.0079952
 0.0080466
 0.0080983
 0.0081500
 0.0082019
 0.0082540
 0.0083062
 0.0083585
 0.0084110
 0.0084637
 0.0085165
 0.0085694
 0.0086225
 0.0086757
 0.0087291
 0.0087826
 0.0088363
 0.0088901
 0.0089440
 0.0089981
 0.0090523
 0.0091067
 0.0091613
 0.0092159
 0.0092708
 0.0093257
 0.0093808
 0.0094361
 0.0094915
 0.0095470
 0.0096027
 0.0096585
 0.0097145
 0.0097706
 0.0098269
 0.0098833
 0.0099398
 0.0099965
 0.0100534
 0.0101104
 0.0101675
 0.0102247
 0.0102821
 0.0103397
 0.0103974
 0.0104552
 0.0105132
 0.0105713
 0.0106296
 0.0106880
 0.0107465
 0.0108052
 0.0108640
 0.0109230
 0.0109821
 0.0110414
 0.0111008
 0.0111603
 0.0112200
 0.0112798
 0.0113398
 0.0113999
 0.0114601
 0.0115205
 0.0115811
 0.0116417
 0.0117025
 0.0117635
 0.0118246
 0.0118858
 0.0119472
 0.0120087
 0.0120703
 0.0121321
 0.0121941
 0.0122561
 0.0123184
 0.0123807
 0.0124432
 0.0125058
 0.0125686
 0.0126315
 0.0126946
 0.0127578
 0.0128211
 0.0128846
 0.0129482
 0.0130119
 0.0130758
 0.0131399
 0.0132040
 0.0132683
 0.0133328
 0.0133973
 0.0134621
 0.0135269
 0.0135919
 0.0136571
 0.0137223
 0.0137878
 0.0138533
 0.0139190
 0.0139848
 0.0140508
 0.0141169
 0.0141831
 0.0142495
 0.0143160
 0.0143827
 0.0144495
 0.0145164
 0.0145835
 0.0146507
 0.0147180
 0.0147855
 0.0148531
 0.0149209
 0.0149888
 0.0150568
 0.0151250
 0.0151933
 0.0152617
 0.0153303
 0.0153990
 0.0154678
 0.0155368
 0.0156059
 0.0156752
 0.0157446
 0.0158141
 0.0158838
 0.0159536
 0.0160235
 0.0160936
 0.0161638
 0.0162341
 0.0163046
 0.0163752
 0.0164460
 0.0165169
 0.0165879
 0.0166591
 0.0167304
 0.0168018
 0.0168734
 0.0169451
 0.0170169
 0.0170889
 0.0171610
 0.0172332
 0.0173056
 0.0173781
 0.0174507
 0.0175235
 0.0175964
 0.0176695
 0.0177427
 0.0178160
 0.0178894
 0.0179630
 0.0180367
 0.0181106
 0.0181846
 0.0182587
 0.0183329
 0.0184073
 0.0184819
 0.0185565
 0.0186313
 0.0187062
 0.0187813
 0.0188565
 0.0189318
 0.0190073
 0.0190829
 0.0191586
 0.0192344
 0.0193104
 0.0193866
 0.0194628
 0.0195392
 0.0196157
 0.0196924
 0.0197692
 0.0198461
 0.0199232
 0.0200004
 0.0200777
 0.0201551
 0.0202327
 0.0203104
 0.0203883
 0.0204663
 0.0205444
 0.0206226
 0.0207010
 0.0207795
 0.0208582
 0.0209369
 0.0210158
 0.0210949
 0.0211741
 0.0212534
 0.0213328
 0.0214124
 0.0214921
 0.0215719
 0.0216519
 0.0217319
 0.0218122
 0.0218925
 0.0219730
 0.0220536
 0.0221344
 0.0222153
 0.0222963
 0.0223774
 0.0224587
 0.0225401
 0.0226216
 0.0227033
 0.0227851
 0.0228670
 0.0229491
 0.0230313
 0.0231136
 0.0231960
 0.0232786
 0.0233613
 0.0234442
 0.0235271
 0.0236103
 0.0236935
 0.0237768
 0.0238603
 0.0239440
 0.0240277
 0.0241116
 0.0241956
 0.0242798
 0.0243640
 0.0244484
 0.0245330
 0.0246176
 0.0247024
 0.0247873
 0.0248724
 0.0249576
 0.0250429
 0.0251283
 0.0252139
 0.0252996
 0.0253854
 0.0254713
 0.0255574
 0.0256436
 0.0257300
 0.0258165
 0.0259031
 0.0259898
 0.0260766
 0.0261636
 0.0262507
 0.0263380
 0.0264254
 0.0265129
 0.0266005
 0.0266883
 0.0267761
 0.0268642
 0.0269523
 0.0270406
 0.0271290
 0.0272175
 0.0273062
 0.0273949
 0.0274839
 0.0275729
 0.0276621
 0.0277514
 0.0278408
 0.0279303
 0.0280200
 0.0281098
 0.0281998
 0.0282898
 0.0283800
 0.0284703
 0.0285608
 0.0286513
 0.0287420
 0.0288329
 0.0289238
 0.0290149
 0.0291061
 0.0291975
 0.0292889
 0.0293805
 0.0294722
 0.0295641
 0.0296561
 0.0297482
 0.0298404
 0.0299327
 0.0300252
 0.0301178
 0.0302106
 0.0303034
 0.0303964
 0.0304895
 0.0305828
 0.0306761
 0.0307696
 0.0308632
 0.0309570
 0.0310509
 0.0311448
 0.0312390
 0.0313332
 0.0314276
 0.0315221
 0.0316167
 0.0317115
 0.0318064
 0.0319014
 0.0319965
 0.0320918
 0.0321872
 0.0322827
 0.0323783
 0.0324741
 0.0325700
 0.0326660
 0.0327621
 0.0328584
 0.0329548
 0.0330513
 0.0331479
 0.0332447
 0.0333416
 0.0334386
 0.0335357
 0.0336330
 0.0337304
 0.0338279
 0.0339256
 0.0340233
 0.0341212
 0.0342192
 0.0343174
 0.0344156
 0.0345140
 0.0346126
 0.0347112
 0.0348100
 0.0349089
 0.0350079
 0.0351070
 0.0352063
 0.0353057
 0.0354052
 0.0355048
 0.0356046
 0.0357045
 0.0358045
 0.0359046
 0.0360049
 0.0361053
 0.0362058
 0.0363064
 0.0364072
 0.0365081
 0.0366091
 0.0367102
 0.0368114
 0.0369128
 0.0370143
 0.0371160
 0.0372177
 0.0373196
 0.0374216
 0.0375237
 0.0376259
 0.0377283
 0.0378308
 0.0379334
 0.0380362
 0.0381390
 0.0382420
 0.0383451
 0.0384483
 0.0385517
 0.0386552
 0.0387588
 0.0388625
 0.0389664
 0.0390703
 0.0391744
 0.0392786
 0.0393830
 0.0394874
 0.0395920
 0.0396967
 0.0398016
 0.0399065
 0.0400116
 0.0401168
 0.0402221
 0.0403276
 0.0404331
 0.0405388
 0.0406447
 0.0407506
 0.0408567
 0.0409628
 0.0410691
 0.0411756
 0.0412821
 0.0413888
 0.0414956
 0.0416025
 0.0417095
 0.0418167
 0.0419240
 0.0420314
 0.0421389
 0.0422466
 0.0423543
 0.0424622
 0.0425702
 0.0426784
 0.0427866
 0.0428950
 0.0430035
 0.0431122
 0.0432209
 0.0433298
 0.0434388
 0.0435479
 0.0436571
 0.0437665
 0.0438759
 0.0439855
 0.0440953
 0.0442051
 0.0443151
 0.0444251
 0.0445354
 0.0446457
 0.0447561
 0.0448667
 0.0449774
 0.0450882
 0.0451991
 0.0453102
 0.0454214
 0.0455327
 0.0456441
 0.0457556
 0.0458673
 0.0459791
 0.0460910
 0.0462030
 0.0463151
 0.0464274
 0.0465398
 0.0466523
 0.0467649
 0.0468777
 0.0469905
 0.0471035
 0.0472166
 0.0473298
 0.0474432
 0.0475567
 0.0476703
 0.0477840
 0.0478978
 0.0480118
 0.0481258
 0.0482400
 0.0483543
 0.0484688
 0.0485833
 0.0486980
 0.0488128
 0.0489277
 0.0490427
 0.0491579
 0.0492732
 0.0493885
 0.0495041
 0.0496197
 0.0497355
 0.0498513
 0.0499673
 0.0500834
 0.0501997
 0.0503160
 0.0504325
 0.0505491
 0.0506658
 0.0507826
 0.0508996
 0.0510166
 0.0511338
 0.0512511
 0.0513686
 0.0514861
 0.0516038
 0.0517216
 0.0518395
 0.0519575
 0.0520757
 0.0521939
 0.0523123
 0.0524308
 0.0525494
 0.0526682
 0.0527870
 0.0529060
 0.0530251
 0.0531443
 0.0532637
 0.0533831
 0.0535027
 0.0536224
 0.0537422
 0.0538621
 0.0539822
 0.0541023
 0.0542226
 0.0543430
 0.0544636
 0.0545842
 0.0547050
 0.0548258
 0.0549468
 0.0550680
 0.0551892
 0.0553105
 0.0554320
 0.0555536
 0.0556753
 0.0557971
 0.0559191
 0.0560412
 0.0561633
 0.0562856
 0.0564081
 0.0565306
 0.0566532
 0.0567760
 0.0568989
 0.0570219
 0.0571451
 0.0572683
 0.0573917
 0.0575151
 0.0576387
 0.0577625
 0.0578863
 0.0580102
 0.0581343
 0.0582585
 0.0583828
 0.0585072
 0.0586318
 0.0587564
 0.0588812
 0.0590061
 0.0591311
 0.0592563
 0.0593815
 0.0595069
 0.0596324
 0.0597580
 0.0598837
 0.0600095
 0.0601355
 0.0602615
 0.0603877
 0.0605140
 0.0606404
 0.0607670
 0.0608936
 0.0610204
 0.0611473
 0.0612743
 0.0614014
 0.0615287
 0.0616560
 0.0617835
 0.0619111
 0.0620388
 0.0621666
 0.0622946
 0.0624227
 0.0625508
 0.0626791
 0.0628075
 0.0629361
 0.0630647
 0.0631935
 0.0633224
 0.0634513
 0.0635805
 0.0637097
 0.0638390
 0.0639685
 0.0640981
 0.0642278
 0.0643576
 0.0644875
 0.0646176
 0.0647477
 0.0648780
 0.0650084
 0.0651389
 0.0652695
 0.0654003
 0.0655311
 0.0656621
 0.0657932
 0.0659244
 0.0660557
 0.0661872
 0.0663187
 0.0664504
 0.0665822
 0.0667141
 0.0668461
 0.0669782
 0.0671105
 0.0672429
 0.0673753
 0.0675079
 0.0676407
 0.0677735
 0.0679064
 0.0680395
 0.0681727
 0.0683060
 0.0684394
 0.0685729
 0.0687065
 0.0688403
 0.0689742
 0.0691082
 0.0692423
 0.0693765
 0.0695108
 0.0696453
 0.0697798
 0.0699145
 0.0700493
 0.0701842
 0.0703193
 0.0704544
 0.0705897
 0.0707250
 0.0708605
 0.0709961
 0.0711318
 0.0712677
 0.0714036
 0.0715397
 0.0716759
 0.0718122
 0.0719486
 0.0720851
 0.0722217
 0.0723585
 0.0724954
 0.0726323
 0.0727694
 0.0729067
 0.0730440
 0.0731814
 0.0733190
 0.0734567
 0.0735945
 0.0737324
 0.0738704
 0.0740085
 0.0741468
 0.0742851
 0.0744236
 0.0745622
 0.0747009
 0.0748397
 0.0749786
 0.0751177
 0.0752569
 0.0753961
 0.0755355
 0.0756750
 0.0758147
 0.0759544
 0.0760942
 0.0762342
 0.0763743
 0.0765145
 0.0766548
 0.0767952
 0.0769357
 0.0770764
 0.0772172
 0.0773580
 0.0774990
 0.0776401
 0.0777814
 0.0779227
 0.0780641
 0.0782057
 0.0783474
 0.0784892
 0.0786311
 0.0787731
 0.0789152
 0.0790575
 0.0791998
 0.0793423
 0.0794849
 0.0796276
 0.0797704
 0.0799133
 0.0800564
 0.0801995
 0.0803428
 0.0804862
 0.0806297
 0.0807733
 0.0809170
 0.0810609
 0.0812048
 0.0813489
 0.0814931
 0.0816374
 0.0817818
 0.0819263
 0.0820709
 0.0822157
 0.0823605
 0.0825055
 0.0826506
 0.0827958
 0.0829411
 0.0830865
 0.0832321
 0.0833777
 0.0835235
 0.0836694
 0.0838153
 0.0839615
 0.0841077
 0.0842540
 0.0844004
 0.0845470
 0.0846937
 0.0848405
 0.0849873
 0.0851344
 0.0852815
 0.0854287
 0.0855761
 0.0857235
 0.0858711
 0.0860188
 0.0861666
 0.0863145
 0.0864625
 0.0866107
 0.0867589
 0.0869073
 0.0870557
 0.0872043
 0.0873530
 0.0875018
 0.0876508
 0.0877998
 0.0879490
 0.0880982
 0.0882476
 0.0883971
 0.0885467
 0.0886964
 0.0888462
 0.0889962
 0.0891462
 0.0892964
 0.0894466
 0.0895970
 0.0897475
 0.0898981
 0.0900489
 0.0901997
 0.0903506
 0.0905017
 0.0906529
 0.0908042
 0.0909556
 0.0911071
 0.0912587
 0.0914104
 0.0915623
 0.0917142
 0.0918663
 0.0920185
 0.0921708
 0.0923232
 0.0924757
 0.0926283
 0.0927810
 0.0929339
 0.0930869
 0.0932399
 0.0933931
 0.0935464
 0.0936998
 0.0938534
 0.0940070
 0.0941607
 0.0943146
 0.0944686
 0.0946226
 0.0947768
 0.0949311
 0.0950856
 0.0952401
 0.0953947
 0.0955495
 0.0957043
 0.0958593
 0.0960144
 0.0961696
 0.0963249
 0.0964803
 0.0966358
 0.0967915
 0.0969472
 0.0971031
 0.0972591
 0.0974152
 0.0975714
 0.0977277
 0.0978841
 0.0980406
 0.0981973
 0.0983540
 0.0985109
 0.0986678
 0.0988249
 0.0989821
 0.0991394
 0.0992969
 0.0994544
 0.0996120
 0.0997698
 0.0999276
 0.1000856
 0.1002437
 0.1004019
 0.1005602
 0.1007186
 0.1008772
 0.1010358
 0.1011945
 0.1013534
 0.1015124
 0.1016715
 0.1018307
 0.1019900
 0.1021494
 0.1023089
 0.1024685
 0.1026283
 0.1027881
 0.1029481
 0.1031082
 0.1032684
 0.1034287
 0.1035891
 0.1037496
 0.1039102
 0.1040710
 0.1042318
 0.1043928
 0.1045539
 0.1047150
 0.1048763
 0.1050377
 0.1051993
 0.1053609
 0.1055226
 0.1056845
 0.1058464
 0.1060085
 0.1061707
 0.1063329
 0.1064953
 0.1066578
 0.1068205
 0.1069832
 0.1071460
 0.1073090
 0.1074720
 0.1076352
 0.1077985
 0.1079618
 0.1081253
 0.1082889
 0.1084527
 0.1086165
 0.1087804
 0.1089445
 0.1091086
 0.1092729
 0.1094373
 0.1096018
 0.1097663
 0.1099311
 0.1100959
 0.1102608
 0.1104258
 0.1105910
 0.1107562
 0.1109216
 0.1110871
 0.1112526
 0.1114183
 0.1115841
 0.1117500
 0.1119161
 0.1120822
 0.1122484
 0.1124148
 0.1125812
 0.1127478
 0.1129145
 0.1130813
 0.1132482
 0.1134152
 0.1135823
 0.1137495
 0.1139168
 0.1140843
 0.1142518
 0.1144195
 0.1145873
 0.1147551
 0.1149231
 0.1150912
 0.1152594
 0.1154278
 0.1155962
 0.1157647
 0.1159334
 0.1161021
 0.1162710
 0.1164399
 0.1166090
 0.1167782
 0.1169475
 0.1171169
 0.1172864
 0.1174561
 0.1176258
 0.1177956
 0.1179656
 0.1181357
 0.1183058
 0.1184761
 0.1186465
 0.1188170
 0.1189876
 0.1191583
 0.1193291
 0.1195001
 0.1196711
 0.1198422
 0.1200135
 0.1201849
 0.1203563
 0.1205279
 0.1206996
 0.1208714
 0.1210433
 0.1212154
 0.1213875
 0.1215597
 0.1217321
 0.1219045
 0.1220771
 0.1222497
 0.1224225
 0.1225954
 0.1227684
 0.1229415
 0.1231147
 0.1232880
 0.1234615
 0.1236350
 0.1238086
 0.1239824
 0.1241563
 0.1243302
 0.1245043
 0.1246785
 0.1248528
 0.1250272
 0.1252017
 0.1253763
 0.1255510
 0.1257259
 0.1259008
 0.1260759
 0.1262510
 0.1264263
 0.1266017
 0.1267772
 0.1269527
 0.1271284
 0.1273043
 0.1274802
 0.1276562
 0.1278323
 0.1280086
 0.1281849
 0.1283614
 0.1285379
 0.1287146
 0.1288914
 0.1290683
 0.1292453
 0.1294224
 0.1295996
 0.1297769
 0.1299543
 0.1301318
 0.1303095
 0.1304872
 0.1306651
 0.1308431
 0.1310211
 0.1311993
 0.1313776
 0.1315560
 0.1317345
 0.1319131
 0.1320918
 0.1322706
 0.1324496
 0.1326286
 0.1328078
 0.1329870
 0.1331664
 0.1333458
 0.1335254
 0.1337051
 0.1338849
 0.1340648
 0.1342448
 0.1344249
 0.1346051
 0.1347855
 0.1349659
 0.1351464
 0.1353271
 0.1355079
 0.1356887
 0.1358697
 0.1360508
 0.1362320
 0.1364133
 0.1365947
 0.1367762
 0.1369578
 0.1371395
 0.1373213
 0.1375033
 0.1376853
 0.1378675
 0.1380497
 0.1382321
 0.1384145
 0.1385971
 0.1387798
 0.1389626
 0.1391455
 0.1393285
 0.1395116
 0.1396948
 0.1398782
 0.1400616
 0.1402451
 0.1404288
 0.1406125
 0.1407964
 0.1409804
 0.1411644
 0.1413486
 0.1415329
 0.1417173
 0.1419018
 0.1420864
 0.1422711
 0.1424560
 0.1426409
 0.1428259
 0.1430111
 0.1431963
 0.1433817
 0.1435671
 0.1437527
 0.1439384
 0.1441241
 0.1443100
 0.1444960
 0.1446821
 0.1448683
 0.1450546
 0.1452411
 0.1454276
 0.1456142
 0.1458009
 0.1459878
 0.1461747
 0.1463618
 0.1465490
 0.1467362
 0.1469236
 0.1471111
 0.1472987
 0.1474864
 0.1476742
 0.1478621
 0.1480501
 0.1482382
 0.1484264
 0.1486148
 0.1488032
 0.1489918
 0.1491804
 0.1493692
 0.1495580
 0.1497470
 0.1499361
 0.1501252
 0.1503145
 0.1505039
 0.1506934
 0.1508830
 0.1510727
 0.1512626
 0.1514525
 0.1516425
 0.1518326
 0.1520229
 0.1522132
 0.1524037
 0.1525942
 0.1527849
 0.1529757
 0.1531665
 0.1533575
 0.1535486
 0.1537398
 0.1539311
 0.1541225
 0.1543140
 0.1545056
 0.1546974
 0.1548892
 0.1550811
 0.1552731
 0.1554653
 0.1556575
 0.1558499
 0.1560424
 0.1562349
 0.1564276
 0.1566204
 0.1568133
 0.1570062
 0.1571993
 0.1573925
 0.1575858
 0.1577792
 0.1579728
 0.1581664
 0.1583601
 0.1585539
 0.1587479
 0.1589419
 0.1591361
 0.1593303
 0.1595247
 0.1597191
 0.1599137
 0.1601084
 0.1603032
 0.1604980
 0.1606930
 0.1608881
 0.1610833
 0.1612786
 0.1614740
 0.1616696
 0.1618652
 0.1620609
 0.1622567
 0.1624527
 0.1626487
 0.1628449
 0.1630411
 0.1632375
 0.1634339
 0.1636305
 0.1638272
 0.1640239
 0.1642208
 0.1644178
 0.1646149
 0.1648121
 0.1650094
 0.1652068
 0.1654043
 0.1656019
 0.1657996
 0.1659975
 0.1661954
 0.1663934
 0.1665916
 0.1667898
 0.1669882
 0.1671866
 0.1673852
 0.1675838
 0.1677826
 0.1679815
 0.1681805
 0.1683795
 0.1685787
 0.1687780
 0.1689774
 0.1691769
 0.1693765
 0.1695762
 0.1697761
 0.1699760
 0.1701760
 0.1703761
 0.1705764
 0.1707767
 0.1709771
 0.1711777
 0.1713783
 0.1715791
 0.1717800
 0.1719809
 0.1721820
 0.1723832
 0.1725844
 0.1727858
 0.1729873
 0.1731889
 0.1733906
 0.1735924
 0.1737943
 0.1739963
 0.1741984
 0.1744006
 0.1746030
 0.1748054
 0.1750079
 0.1752105
 0.1754133
 0.1756161
 0.1758191
 0.1760221
 0.1762253
 0.1764285
 0.1766319
 0.1768354
 0.1770389
 0.1772426
 0.1774464
 0.1776503
 0.1778543
 0.1780583
 0.1782625
 0.1784668
 0.1786712
 0.1788758
 0.1790804
 0.1792851
 0.1794899
 0.1796948
 0.1798999
 0.1801050
 0.1803102
 0.1805156
 0.1807210
 0.1809265
 0.1811322
 0.1813379
 0.1815438
 0.1817498
 0.1819558
 0.1821620
 0.1823683
 0.1825747
 0.1827811
 0.1829877
 0.1831944
 0.1834012
 0.1836081
 0.1838151
 0.1840222
 0.1842294
 0.1844367
 0.1846441
 0.1848516
 0.1850593
 0.1852670
 0.1854748
 0.1856827
 0.1858908
 0.1860989
 0.1863072
 0.1865155
 0.1867240
 0.1869325
 0.1871412
 0.1873499
 0.1875588
 0.1877678
 0.1879768
 0.1881860
 0.1883953
 0.1886046
 0.1888141
 0.1890237
 0.1892334
 0.1894432
 0.1896531
 0.1898631
 0.1900732
 0.1902834
 0.1904937
 0.1907041
 0.1909146
 0.1911253
 0.1913360
 0.1915468
 0.1917577
 0.1919688
 0.1921799
 0.1923911
 0.1926025
 0.1928139
 0.1930255
 0.1932371
 0.1934489
 0.1936607
 0.1938727
 0.1940848
 0.1942969
 0.1945092
 0.1947216
 0.1949340
 0.1951466
 0.1953593
 0.1955721
 0.1957850
 0.1959980
 0.1962111
 0.1964243
 0.1966376
 0.1968510
 0.1970645
 0.1972781
 0.1974918
 0.1977056
 0.1979195
 0.1981335
 0.1983476
 0.1985619
 0.1987762
 0.1989906
 0.1992052
 0.1994198
 0.1996345
 0.1998494
 0.2000643
 0.2002794
 0.2004945
 0.2007098
 0.2009251
 0.2011406
 0.2013561
 0.2015718
 0.2017876
 0.2020034
 0.2022194
 0.2024355
 0.2026516
 0.2028679
 0.2030843
 0.2033008
 0.2035174
 0.2037340
 0.2039508
 0.2041677
 0.2043847
 0.2046018
 0.2048190
 0.2050363
 0.2052537
 0.2054712
 0.2056888
 0.2059066
 0.2061244
 0.2063423
 0.2065603
 0.2067784
 0.2069966
 0.2072150
 0.2074334
 0.2076519
 0.2078706
 0.2080893
 0.2083081
 0.2085271
 0.2087461
 0.2089653
 0.2091845
 0.2094038
 0.2096233
 0.2098428
 0.2100625
 0.2102823
 0.2105021
 0.2107221
 0.2109421
 0.2111623
 0.2113826
 0.2116029
 0.2118234
 0.2120440
 0.2122647
 0.2124854
 0.2127063
 0.2129273
 0.2131484
 0.2133696
 0.2135908
 0.2138122
 0.2140337
 0.2142553
 0.2144770
 0.2146988
 0.2149207
 0.2151427
 0.2153648
 0.2155870
 0.2158093
 0.2160317
 0.2162542
 0.2164768
 0.2166996
 0.2169224
 0.2171453
 0.2173683
 0.2175914
 0.2178147
 0.2180380
 0.2182614
 0.2184849
 0.2187086
 0.2189323
 0.2191561
 0.2193801
 0.2196041
 0.2198282
 0.2200525
 0.2202768
 0.2205012
 0.2207258
 0.2209504
 0.2211752
 0.2214000
 0.2216250
 0.2218500
 0.2220752
 0.2223004
 0.2225258
 0.2227512
 0.2229768
 0.2232025
 0.2234282
 0.2236541
 0.2238800
 0.2241061
 0.2243323
 0.2245585
 0.2247849
 0.2250114
 0.2252380
 0.2254646
 0.2256914
 0.2259183
 0.2261453
 0.2263723
 0.2265995
 0.2268268
 0.2270542
 0.2272817
 0.2275093
 0.2277369
 0.2279647
 0.2281926
 0.2284206
 0.2286487
 0.2288769
 0.2291052
 0.2293336
 0.2295621
 0.2297907
 0.2300194
 0.2302482
 0.2304771
 0.2307061
 0.2309352
 0.2311644
 0.2313937
 0.2316231
 0.2318526
 0.2320822
 0.2323119
 0.2325417
 0.2327716
 0.2330016
 0.2332317
 0.2334620
 0.2336923
 0.2339227
 0.2341532
 0.2343838
 0.2346145
 0.2348454
 0.2350763
 0.2353073
 0.2355384
 0.2357696
 0.2360010
 0.2362324
 0.2364639
 0.2366955
 0.2369273
 0.2371591
 0.2373910
 0.2376231
 0.2378552
 0.2380874
 0.2383197
 0.2385522
 0.2387847
 0.2390173
 0.2392501
 0.2394829
 0.2397158
 0.2399489
 0.2401820
 0.2404153
 0.2406486
 0.2408820
 0.2411156
 0.2413492
 0.2415829
 0.2418168
 0.2420507
 0.2422848
 0.2425189
 0.2427532
 0.2429875
 0.2432219
 0.2434565
 0.2436911
 0.2439259
 0.2441607
 0.2443957
 0.2446307
 0.2448659
 0.2451011
 0.2453364
 0.2455719
 0.2458074
 0.2460431
 0.2462788
 0.2465147
 0.2467506
 0.2469867
 0.2472228
 0.2474591
 0.2476954
 0.2479319
 0.2481684
 0.2484051
 0.2486418
 0.2488787
 0.2491156
 0.2493527
 0.2495899
 0.2498271
 0.2500645
 0.2503019
 0.2505395
 0.2507771
 0.2510149
 0.2512527
 0.2514907
 0.2517287
 0.2519669
 0.2522051
 0.2524435
 0.2526819
 0.2529205
 0.2531592
 0.2533979
 0.2536368
 0.2538757
 0.2541148
 0.2543539
 0.2545932
 0.2548325
 0.2550720
 0.2553115
 0.2555512
 0.2557910
 0.2560308
 0.2562708
 0.2565108
 0.2567510
 0.2569912
 0.2572316
 0.2574720
 0.2577126
 0.2579532
 0.2581940
 0.2584348
 0.2586758
 0.2589168
 0.2591580
 0.2593992
 0.2596406
 0.2598821
 0.2601236
 0.2603653
 0.2606070
 0.2608489
 0.2610908
 0.2613329
 0.2615750
 0.2618173
 0.2620596
 0.2623020
 0.2625446
 0.2627872
 0.2630300
 0.2632728
 0.2635158
 0.2637588
 0.2640020
 0.2642452
 0.2644886
 0.2647320
 0.2649756
 0.2652192
 0.2654629
 0.2657068
 0.2659507
 0.2661948
 0.2664389
 0.2666831
 0.2669275
 0.2671719
 0.2674165
 0.2676611
 0.2679058
 0.2681507
 0.2683956
 0.2686406
 0.2688858
 0.2691310
 0.2693763
 0.2696218
 0.2698673
 0.2701129
 0.2703587
 0.2706045
 0.2708504
 0.2710965
 0.2713426
 0.2715888
 0.2718351
 0.2720816
 0.2723281
 0.2725747
 0.2728214
 0.2730683
 0.2733152
 0.2735622
 0.2738093
 0.2740566
 0.2743039
 0.2745513
 0.2747988
 0.2750464
 0.2752941
 0.2755420
 0.2757899
 0.2760379
 0.2762860
 0.2765342
 0.2767825
 0.2770309
 0.2772794
 0.2775280
 0.2777767
 0.2780255
 0.2782744
 0.2785234
 0.2787726
 0.2790218
 0.2792711
 0.2795204
 0.2797699
 0.2800195
 0.2802692
 0.2805190
 0.2807689
 0.2810189
 0.2812690
 0.2815192
 0.2817695
 0.2820199
 0.2822704
 0.2825209
 0.2827716
 0.2830224
 0.2832733
 0.2835243
 0.2837754
 0.2840265
 0.2842778
 0.2845292
 0.2847807
 0.2850322
 0.2852839
 0.2855357
 0.2857875
 0.2860395
 0.2862916
 0.2865437
 0.2867960
 0.2870484
 0.2873008
 0.2875534
 0.2878060
 0.2880588
 0.2883117
 0.2885646
 0.2888177
 0.2890708
 0.2893241
 0.2895774
 0.2898309
 0.2900844
 0.2903381
 0.2905918
 0.2908456
 0.2910996
 0.2913536
 0.2916078
 0.2918620
 0.2921163
 0.2923708
 0.2926253
 0.2928799
 0.2931346
 0.2933895
 0.2936444
 0.2938994
 0.2941545
 0.2944098
 0.2946651
 0.2949205
 0.2951760
 0.2954316
 0.2956873
 0.2959431
 0.2961990
 0.2964551
 0.2967112
 0.2969674
 0.2972237
 0.2974801
 0.2977366
 0.2979932
 0.2982498
 0.2985066
 0.2987635
 0.2990205
 0.2992776
 0.2995348
 0.2997921
 0.3000495
 0.3003069
 0.3005645
 0.3008222
 0.3010800
 0.3013378
 0.3015958
 0.3018539
 0.3021120
 0.3023703
 0.3026287
 0.3028871
 0.3031457
 0.3034043
 0.3036631
 0.3039219
 0.3041809
 0.3044399
 0.3046991
 0.3049583
 0.3052177
 0.3054771
 0.3057367
 0.3059963
 0.3062560
 0.3065159
 0.3067758
 0.3070358
 0.3072960
 0.3075562
 0.3078165
 0.3080769
 0.3083374
 0.3085981
 0.3088588
 0.3091196
 0.3093805
 0.3096415
 0.3099026
 0.3101638
 0.3104251
 0.3106865
 0.3109480
 0.3112096
 0.3114713
 0.3117331
 0.3119950
 0.3122569
 0.3125190
 0.3127812
 0.3130435
 0.3133059
 0.3135683
 0.3138309
 0.3140936
 0.3143563
 0.3146192
 0.3148822
 0.3151452
 0.3154084
 0.3156716
 0.3159350
 0.3161984
 0.3164620
 0.3167256
 0.3169894
 0.3172532
 0.3175172
 0.3177812
 0.3180453
 0.3183096
 0.3185739
 0.3188383
 0.3191028
 0.3193674
 0.3196322
 0.3198970
 0.3201619
